X: 1
T:Paro lou Loup Petiote
R:Bourr\'ee
M:3/8
O:France
K:C
|: c2|\
    d2g3f| gfedc2| d2g3f| g6| \
   d2g3f| gfedc2| d2g3f| g4:|
|: d2g2f2| d2e2c2| Bcdedc| B2G2G2| \
   d2g2f2| d2e2c2| BcdedB| c4 :|
